!!!!SEGMENT: pl-kk--kk-i-515--001_hoffmann-leopold-motetto-quid-hostem-times.krn
!!!id: 17xx:1865
!!!COM: Hoffmann, Leopold
!!!OTL: Motetto – Quid hostem times
!!!PDT:
!!!SMS-siglum: PL-Kk
!!!SMS-shelfmark: Kk.I.515
!!!NIFC-rismID: 1001140207
!!!URL-scan: http://repozytorium.nifc.pl/skany/pl-kk-nut--i-515
!!!ONB-nifc: UWAGA: części Motetu: 1. Quid hostem times, 2. Foris bella intus timores, 3. O supremum caeli
!!!SMS-variant: Violino Primo PL-Kk Kk.I.515:23; Violino 2.do PL-Kk Kk.I.515:33; Organo PL-Kk Kk.I.515:58
!!!SMS-altvar: Violino Primo PL-Kk Kk.I.515:18; Violino 2.do PL-Kk Kk.I.515:28; Organo PL-Kk Kk.I.515:53
**kern	**fba	**dynam	**kernyy	**dynam	**kernyy	**dynam	**kernyy	**kernyy	**kernyy	**kernyy	**kernyy	**kernyy	**text	**kernyy	**kernyy	**kernyy	**kernyy
*part13	*part13	*part13	*part12	*part12	*part11	*part11	*part10	*part9	*part8	*part7	*part6	*part5	*part5	*part4	*part3	*part2	*part1
*staff13	*	*	*staff12	*	*staff11	*	*staff10	*staff9	*staff8	*staff7	*staff6	*staff5	*staff5	*staff4	*staff3	*staff2	*staff1
*I"Organo	*	*	*I"Violono.	*	*I"Violino 2.do	*	*I"Violino Primo.	*I"Baſso Rip:no	*I"Tenore Rip:no	*I"Alto Rip:no	*I"Soprano Rip:no	*I"Soprano Solo	*	*I"Clarino 2do in C	*I"Clarino Primo in C.	*I"Oboe 2do:	*I"Oboe Primo.
*I'org	*	*	*I'vlne	*	*I'vl II	*	*I'vl I	*I'B	*I'T	*I'A	*I'S	*I'S solo	*	*I'clno II	*I'clno I	*I'ob II	*I'ob I
*group5	*	*	*group4	*	*group4	*	*group4	*group3	*group3	*group3	*group3	*group3	*	*group2	*group2	*group1	*group1
*clefF4	*	*	*clefF4	*	*clefG2	*	*clefG2	*clefF4	*clefC4	*clefC3	*clefC1	*clefC1	*	*clefG2	*clefG2	*clefG2	*clefG2
*k[]	*	*	*k[]	*	*k[]	*	*k[]	*k[]	*k[]	*k[]	*k[]	*k[]	*	*k[]	*k[]	*k[]	*k[]
*M4/4	*	*	*M4/4	*	*M4/4	*	*M4/4	*M4/4	*M4/4	*M4/4	*M4/4	*M4/4	*	*M4/4	*M4/4	*M4/4	*M4/4
*met(c)	*	*	*met(c)	*	*met(c)	*	*met(c)	*met(c)	*met(c)	*met(c)	*met(c)	*met(c)	*	*met(c)	*met(c)	*met(c)	*met(c)
=1	=1	=1	=1	=1	=1	=1	=1	=1	=1	=1	=1	=1	=1	=1	=1	=1	=1
*2\right	*	*	*2\right	*	*2\right	*	*2\right	*2\right	*2\right	*2\right	*2\right	*2\right	*	*2\right	*2\right	*2\right	*2\right
!	!	!	!LO:TX:t=P:problem:4,8,16 left or right:global	!	!	!	!	!	!	!	!	!	!	!	!LO:TX:t=P:problem:4,8,16 middle:global	!LO:TX:t=P:problem:all\right:global	!LO:TX:t=P:problem:4,8,16\ left or right:global
!LO:TX:a:t=Recitat&colon;vo	!	!	!LO:TX:a:t=Recit&colon;vo	!	!LO:TX:a:t=Recitvo	!	!LO:TX:a:t=Recit&colon;vo	!	!	!	!	!LO:TX:t=P:problem:poniżej partii Soprano Solo pięciolinia z pomocniczo zapisaną partią Organo	!	!LO:TX:a:t=Recitavo	!LO:TX:a:t=Recit&colon;vo	!LO:TX:a:B:t=Allo&colon;	!LO:TX:a:B:t=Allo&colon;
!LO:TX:a:B:t=Vivace	!	!	!LO:TX:a:B:t=Vivace	!	!LO:TX:a:B:t=Vivace	!	!LO:TX:a:B:t=Vivace	!LO:TX:t=P:problem:partia występuje tylko w części "Chorus"	!LO:TX:t=P:problem:partia występuje tylko w części "Chorus"	!LO:TX:t=P:problem:partia występuje tylko w części "Chorus"	!LO:TX:t=P:problem:partia występuje tylko w części "Chorus"	!LO:TX:a:B:t=vivac.	!	!LO:TX:a:B:t=Vivace	!LO:TX:a:B:t=Vivace	!LO:TX:a:B:t=Vivace	!LO:TX:a:B:t=Vivace
16.C\LL	.	.	16.C\LL	.	4g/ 4ee 4ccc	.	4g/ 4ee 4ccc	1ryy	1ryy	1ryy	1ryy	1r	.	4e/	4cc\	4ee\	4ccc\
32E\K	.	.	32E\K	.	.	.	.	.	.	.	.	.	.	.	.	.	.
16.G\	.	.	16.G\	.	.	.	.	.	.	.	.	.	.	.	.	.	.
32c\JJk	.	.	32c\JJk	.	.	.	.	.	.	.	.	.	.	.	.	.	.
16.GG/LL	.	.	16.GG/LL	.	4g/ 4dd 4bb	.	4g/ 4dd 4bb	.	.	.	.	.	.	8.g/L	8.dd\L	4dd\	4bb\
32BB/K	.	.	32BB/K	.	.	.	.	.	.	.	.	.	.	.	.	.	.
16.D/	.	.	16.D/	.	.	.	.	.	.	.	.	.	.	.	.	.	.
.	.	.	.	.	.	.	.	.	.	.	.	.	.	16g/Jk	16dd\Jk	.	.
32G/JJk	.	.	32G/JJk	.	.	.	.	.	.	.	.	.	.	.	.	.	.
4GG/	.	.	4GG/	.	8r	.	8r	.	.	.	.	.	.	4g/	4dd\	2r	2r
!	!	!	!	!	!LO:TX:t=P:problem:4,8,16 left, middle or right:global	!	!LO:TX:t=P:problem:4,8,16 left, middle or right:global	!	!	!	!	!	!	!	!	!	!
!	!	!	!	!	!LO:TX:t=P:problem:triola oznaczona liczbą i łukiem:global	!	!LO:TX:t=P:problem:triola oznaczona liczbą i łukiem:global	!	!	!	!	!	!	!	!	!	!
.	.	.	.	.	24ddd\LL	.	24ddd\LL	.	.	.	.	.	.	.	.	.	.
.	.	.	.	.	24ccc\	.	24ccc\	.	.	.	.	.	.	.	.	.	.
.	.	.	.	.	24bb\JJ	.	24bb\JJ	.	.	.	.	.	.	.	.	.	.
8r	.	.	8r	.	24aa\LL	.	24aa\LL	.	.	.	.	.	.	8r	8r	.	.
.	.	.	.	.	24gg\	.	24gg\	.	.	.	.	.	.	.	.	.	.
.	.	.	.	.	24ff\JJ	.	24ff\JJ	.	.	.	.	.	.	.	.	.	.
8BB/	.	.	8BB/	.	24ff\LL	.	24ff\LL	.	.	.	.	.	.	8g/	8dd\	.	.
.	.	.	.	.	24ee\	.	24ee\	.	.	.	.	.	.	.	.	.	.
.	.	.	.	.	24dd\JJ	.	24dd\JJ	.	.	.	.	.	.	.	.	.	.
=2	=2	=2	=2	=2	=2	=2	=2	=2	=2	=2	=2	=2	=2	=2	=2	=2	=2
16.C\LL	.	.	16.C\LL	.	4g/ 4ee 4ccc	.	4g/ 4ee 4ccc	1ryy	1ryy	1ryy	1ryy	1r	.	4e/	4cc\	4ee\	4ccc\
32E\K	.	.	32E\K	.	.	.	.	.	.	.	.	.	.	.	.	.	.
16.G\	.	.	16.G\	.	.	.	.	.	.	.	.	.	.	.	.	.	.
32c\JJk	.	.	32c\JJk	.	.	.	.	.	.	.	.	.	.	.	.	.	.
16.GG/LL	.	.	16.GG/LL	.	4g/ 4dd 4bb	.	4g/ 4dd 4bb	.	.	.	.	.	.	8.g/L	8.dd\L	4dd\	4bb\
32BB/K	.	.	32BB/K	.	.	.	.	.	.	.	.	.	.	.	.	.	.
16.D/	.	.	16.D/	.	.	.	.	.	.	.	.	.	.	.	.	.	.
.	.	.	.	.	.	.	.	.	.	.	.	.	.	16g/Jk	16dd\Jk	.	.
32G/JJk	.	.	32G/JJk	.	.	.	.	.	.	.	.	.	.	.	.	.	.
!LO:LB:g=original	!	!	!	!	!	!	!LO:LB:g=original	!	!	!	!	!	!	!	!	!	!
4GG/	.	.	4GG/	.	8r	.	8r	.	.	.	.	.	.	4g/	4dd\	2r	2r
.	.	.	.	.	24ddd\LL	.	24ddd\LL	.	.	.	.	.	.	.	.	.	.
.	.	.	.	.	24ccc\	.	24ccc\	.	.	.	.	.	.	.	.	.	.
.	.	.	.	.	24bb\JJ	.	24bb\JJ	.	.	.	.	.	.	.	.	.	.
8r	.	.	8r	.	24aa\LL	.	24aa\LL	.	.	.	.	.	.	8r	8r	.	.
.	.	.	.	.	24gg\	.	24gg\	.	.	.	.	.	.	.	.	.	.
.	.	.	.	.	24ff\JJ	.	24ff\JJ	.	.	.	.	.	.	.	.	.	.
8BB/	.	.	8BB/	.	24ff\LL	.	24ff\LL	.	.	.	.	.	.	16g/LL	8dd\	.	.
.	.	.	.	.	24ee\	.	24ee\	.	.	.	.	.	.	.	.	.	.
.	.	.	.	.	.	.	.	.	.	.	.	.	.	16g/JJ	.	.	.
.	.	.	.	.	24dd\JJ	.	24dd\JJ	.	.	.	.	.	.	.	.	.	.
!	!	!	!LO:LB:g=original	!	!LO:LB:g=original	!	!	!	!	!	!	!	!	!	!	!	!
=3	=3	=3	=3	=3	=3	=3	=3	=3	=3	=3	=3	=3	=3	=3	=3	=3	=3
8C/L	.	.	8C/L	.	(16ee\LL	.	(16ee\LL	1ryy	1ryy	1ryy	1ryy	1r	.	8g/L	4cc\	4r	4r
.	.	.	.	.	16gg\)	.	16gg\)	.	.	.	.	.	.	.	.	.	.
8C/	.	.	8C/	.	16gg'\	.	16gg'\	.	.	.	.	.	.	8e/J	.	.	.
.	.	.	.	.	16gg'\JJ	.	16gg'\JJ	.	.	.	.	.	.	.	.	.	.
!	!	!	!	!	!LO:TX:t=P:problem:niejednoznaczny zapis ozdobnika [przyjęto trillo]:global	!	!LO:TX:t=P:problem:niejednoznaczny zapis ozdobnika [przyjęto trillo]:global	!	!	!	!	!	!	!	!	!	!
!	!	!	!	!	!LO:TX:a:B:t=t	!	!LO:TX:a:B:t=t	!	!	!	!	!	!	!	!	!	!
8E/	.	.	8E/	.	8.gg\L	.	8.gg\L	.	.	.	.	.	.	8.c/L	8.cc\L	4cc\	4gg\
8C/J	.	.	8C/J	.	.	.	.	.	.	.	.	.	.	.	.	.	.
.	.	.	.	.	32ff\LL	.	32ff\LL	.	.	.	.	.	.	16c/Jk	16cc\Jk	.	.
.	.	.	.	.	32gg\JJJ	.	32gg\JJJ	.	.	.	.	.	.	.	.	.	.
8F\L	.	.	8F\L	.	(16aa\LL	.	(16aa\LL	.	.	.	.	.	.	2c/	2cc\	[2cc\	2aa\
.	.	.	.	.	16cc\)	.	16cc\)	.	.	.	.	.	.	.	.	.	.
!	!	!	!	!	!	!	!LO:TX:a:t=|:problem	!	!	!	!	!	!	!	!	!	!
8A\	.	.	8A\	.	16cc'\	.	16cc\	.	.	.	.	.	.	.	.	.	.
!	!	!	!	!	!	!	!LO:TX:a:t=|:problem	!	!	!	!	!	!	!	!	!	!
.	.	.	.	.	16cc'\JJ	.	16cc\JJ	.	.	.	.	.	.	.	.	.	.
!	!	!	!	!	!LO:TX:a:B:t=t	!	!LO:TX:a:B:t=t	!	!	!	!	!	!	!	!	!	!
8F\	.	.	8F\	.	8.cc\L	.	8.cc\L	.	.	.	.	.	.	.	.	.	.
8C\J	.	.	8C\J	.	.	.	.	.	.	.	.	.	.	.	.	.	.
.	.	.	.	.	32b\LL	.	32b\LL	.	.	.	.	.	.	.	.	.	.
.	.	.	.	.	32cc\JJJ	.	32cc\JJJ	.	.	.	.	.	.	.	.	.	.
=4	=4	=4	=4	=4	=4	=4	=4	=4	=4	=4	=4	=4	=4	=4	=4	=4	=4
8E\L	.	.	8E\L	.	(16gg\LL	.	(16gg\LL	1ryy	1ryy	1ryy	1ryy	2r	.	2c/	2cc\	2cc\]	2gg\
.	.	.	.	.	16cc\)	.	16cc\)	.	.	.	.	.	.	.	.	.	.
!	!	!	!	!	!	!	!LO:TX:a:t=|:problem	!	!	!	!	!	!	!	!	!	!
8G\	.	.	8G\	.	16cc'\	.	16cc\	.	.	.	.	.	.	.	.	.	.
!	!	!	!	!	!	!	!LO:TX:a:t=|:problem	!	!	!	!	!	!	!	!	!	!
.	.	.	.	.	16cc'\JJ	.	16cc\JJ	.	.	.	.	.	.	.	.	.	.
!	!	!	!	!	!LO:TX:a:B:t=t	!	!LO:TX:a:B:t=t	!	!	!	!	!	!	!	!	!	!
8E\	.	.	8E\	.	8.cc\L	.	8.cc\L	.	.	.	.	.	.	.	.	.	.
8C\J	.	.	8C\J	.	.	.	.	.	.	.	.	.	.	.	.	.	.
.	.	.	.	.	32b\LL	.	(32b\LL	.	.	.	.	.	.	.	.	.	.
.	.	.	.	.	32cc\JJJ	.	32cc\JJJ)	.	.	.	.	.	.	.	.	.	.
!	!	!	!	!	!	!	!LO:LB:g=original	!	!	!	!	!	!	!	!	!	!
!LO:TX:t=P:problem:mixed beam	!	!	!LO:TX:t=P:problem:mixed beam	!	!	!	!LO:TX:t=P:problem:sekstola oznaczone liczbą i łukiem:global	!	!	!	!	!LO:LB:g=original	!	!	!	!	!
8GG/L	.	.	8GG/L	.	24ff\LL	.	24ff\LL	.	.	.	.	2r	.	8G/	8dd\	4dd\	4ff\
.	.	.	.	.	24ee\	.	24ee\	.	.	.	.	.	.	.	.	.	.
.	.	.	.	.	24dd\JJ	.	24dd\	.	.	.	.	.	.	.	.	.	.
8G\J	.	.	8G\J	.	24dd\LL	.	24dd\	.	.	.	.	.	.	8r	8r	.	.
.	.	.	.	.	24cc\	.	24cc\	.	.	.	.	.	.	.	.	.	.
.	.	.	.	.	24b\JJ	.	24b\JJ	.	.	.	.	.	.	.	.	.	.
!	!	!	!	!	!	!	!LO:TUP:b	!	!	!	!	!	!	!	!	!	!
8r	.	.	8r	.	24b/LL	.	24b/LL	.	.	.	.	.	.	8r	8r	8r	8r
.	.	.	.	.	24a/	.	24a/	.	.	.	.	.	.	.	.	.	.
.	.	.	.	.	24g/JJ	.	24g/	.	.	.	.	.	.	.	.	.	.
!	!	!	!	!	!	!	!	!	!	!	!	!	!	!LO:LB:g=original	!	!	!
8BB/	.	.	8BB/	.	24f/LL	.	24f/	.	.	.	.	.	.	8g/	8dd\	8dd\	8f/
.	.	.	.	.	24e/	.	24e/	.	.	.	.	.	.	.	.	.	.
.	.	.	.	.	24d/JJ	.	24d/JJ	.	.	.	.	.	.	.	.	.	.
!	!	!	!	!	!LO:LB:g=original	!	!	!	!	!	!	!	!	!	!LO:LB:g=original	!	!LO:LB:g=original
=5	=5	=5	=5	=5	=5	=5	=5	=5	=5	=5	=5	=5	=5	=5	=5	=5	=5
!	!	!	!	!	!LO:TX:t=P:problem:mixed beam	!	!LO:TX:t=P:problem:mixed beam	!	!	!	!	!	!	!	!	!	!
8C/L	.	.	8C/L	.	(16e/LL	.	(16e/LL	1ryy	1ryy	1ryy	1ryy	1r	.	4e/	4cc\	[1cc	4e/
.	.	.	.	.	16gg\)	.	16gg\)	.	.	.	.	.	.	.	.	.	.
8C/	.	.	8C/	.	16gg'\	.	16gg'\	.	.	.	.	.	.	.	.	.	.
.	.	.	.	.	16gg'\JJ	.	16gg'\JJ	.	.	.	.	.	.	.	.	.	.
!	!	!	!	!	!LO:TX:a:B:t=t	!	!LO:TX:a:B:t=t	!	!	!	!	!	!	!	!	!	!
8E/	.	.	8E/	.	8.gg\L	.	8.gg\L	.	.	.	.	.	.	8.c/L	8.cc\L	.	4gg\
8C/J	.	.	8C/J	.	.	.	.	.	.	.	.	.	.	.	.	.	.
.	.	.	.	.	32ff\LL	.	32ff\LL	.	.	.	.	.	.	16c/Jk	16cc\Jk	.	.
.	.	.	.	.	32gg\JJJ	.	32gg\JJJ	.	.	.	.	.	.	.	.	.	.
8F\L	.	.	8F\L	.	(16aa\LL	.	(16aa\LL	.	.	.	.	.	.	2c/	[<2cc\	.	2aa\
.	.	.	.	.	16cc\)	.	16cc\)	.	.	.	.	.	.	.	.	.	.
8A\	.	.	8A\	.	16cc'\	.	16cc'\	.	.	.	.	.	.	.	.	.	.
.	.	.	.	.	16cc'\JJ	.	16cc\JJ	.	.	.	.	.	.	.	.	.	.
!	!	!	!	!	!LO:TX:a:B:t=t	!	!LO:TX:a:B:t=t	!	!	!	!	!	!	!	!	!	!
8F\	.	.	8F\	.	8.cc\L	.	8.cc\L	.	.	.	.	.	.	.	.	.	.
8C\J	.	.	8C\J	.	.	.	.	.	.	.	.	.	.	.	.	.	.
.	.	.	.	.	32b\LL	.	32b\LL	.	.	.	.	.	.	.	.	.	.
.	.	.	.	.	32cc\JJJ	.	32cc\JJJ	.	.	.	.	.	.	.	.	.	.
!LO:LB:g=original	!	!	!LO:LB:g=original	!	!	!	!	!	!	!	!	!	!	!	!	!LO:LB:g=original	!
=6	=6	=6	=6	=6	=6	=6	=6	=6	=6	=6	=6	=6	=6	=6	=6	=6	=6
8E\L	.	.	8E\L	.	(16gg\LL	.	(16gg\LL	1ryy	1ryy	1ryy	1ryy	1r	.	4c/	4cc\]	2cc\]	2gg\
.	.	.	.	.	16cc\)	.	16cc\)	.	.	.	.	.	.	.	.	.	.
8G\	.	.	8G\	.	16cc'\	.	16cc'\	.	.	.	.	.	.	.	.	.	.
.	.	.	.	.	16cc'\JJ	.	16cc'\JJ	.	.	.	.	.	.	.	.	.	.
!	!	!	!	!	!LO:TX:a:B:t=t	!	!LO:TX:a:B:t=t	!	!	!	!	!	!	!	!	!	!
8E\	.	.	8E\	.	8.cc\L	.	8.cc\L	.	.	.	.	.	.	8c/	8cc\	.	.
8C\J	.	.	8C\J	.	.	.	.	.	.	.	.	.	.	8r	8r	.	.
.	.	.	.	.	16gg\Jk	.	16gg\Jk	.	.	.	.	.	.	.	.	.	.
!	!	!LO:DY:b:t=pia&colon;	!	!LO:DY:b:t=p&colon;	!	!	!	!	!	!	!	!	!	!	!	!	!
8D/L	4	p	8D/L	p	4gg\	.	[4gg\	.	.	.	.	.	.	2r	2r	2r	2r
8D/	#	.	8D/	.	.	.	.	.	.	.	.	.	.	.	.	.	.
8D/	.	.	8D/	.	(16gg\LL	.	16gg\LL]	.	.	.	.	.	.	.	.	.	.
.	.	.	.	.	16ff#X\)	.	16ff#X\	.	.	.	.	.	.	.	.	.	.
8D/J	.	.	8D/J	.	(16ff#\	.	16aa\	.	.	.	.	.	.	.	.	.	.
.	.	.	.	.	16ee\JJ)	.	16gg\JJ	.	.	.	.	.	.	.	.	.	.
!	!	!	!	!	!LO:LB:g=original	!	!LO:LB:g=original	!	!	!	!	!	!	!	!	!	!
=7	=7	=7	=7	=7	=7	=7	=7	=7	=7	=7	=7	=7	=7	=7	=7	=7	=7
8D/L	.	.	8D/L	.	(16gg\LL	.	(16bb\LL	1ryy	1ryy	1ryy	1ryy	1r	.	2r	2r	2r	2r
.	.	.	.	.	16ff#X\)	.	16aa\)	.	.	.	.	.	.	.	.	.	.
8D/	.	.	8D/	.	(16aa\	.	(16ccc\	.	.	.	.	.	.	.	.	.	.
.	.	.	.	.	16gg\JJ)	.	16bb\JJ)	.	.	.	.	.	.	.	.	.	.
!	!	!	!	!	!LO:TX:t=P:problem:niejednoznaczny zapis łuku	!	!	!	!	!	!	!	!	!	!	!	!
8D/	.	.	8D/	.	(16bb\LL	.	16ddd\LL	.	.	.	.	.	.	.	.	.	.
.	.	.	.	.	16aa\	.	16ccc\	.	.	.	.	.	.	.	.	.	.
8D/J	.	.	8D/J	.	16gg\	.	(16bb\	.	.	.	.	.	.	.	.	.	.
.	.	.	.	.	16ff#\JJ)	.	16aa\JJ)	.	.	.	.	.	.	.	.	.	.
!	!	!LO:DY:b:t=for&colon;	!	!LO:DY:b:t=f&colon;	!	!	!	!	!	!	!	!	!	!	!	!	!
8G\L	.	f	8G\L	f	16gg\LL	.	16bb\LL	.	.	.	.	.	.	[2dd\	[<2dd\	4gg\	4bb\
.	.	.	.	.	16dd\J	.	16dd\J	.	.	.	.	.	.	.	.	.	.
!	!	!	!	!	!LO:TX:a:B:t=t	!	!LO:TX:a:B:t=t	!	!	!	!	!	!	!	!	!	!
8B\	.	.	8B\	.	8dd\J	.	8dd\J	.	.	.	.	.	.	.	.	.	.
8F#X\	.	.	8F#X\	.	16ccc\LL	.	16ccc\LL	.	.	.	.	.	.	.	.	4aa\	4ccc\
.	.	.	.	.	16dd\J	.	16dd\J	.	.	.	.	.	.	.	.	.	.
!	!	!	!	!	!LO:TX:a:B:t=t	!	!LO:TX:a:B:t=t	!	!	!	!	!	!	!	!	!	!
8D\J	.	.	8D\J	.	8dd\J	.	8dd\J	.	.	.	.	.	.	.	.	.	.
=8	=8	=8	=8	=8	=8	=8	=8	=8	=8	=8	=8	=8	=8	=8	=8	=8	=8
8G\L	.	.	8G\L	.	16bb\LL	.	16bb\LL	1ryy	1ryy	1ryy	1ryy	1r	.	1dd]	1dd_<	4gg\	4bb\
.	.	.	.	.	16dd\J	.	16dd\J	.	.	.	.	.	.	.	.	.	.
!	!	!	!	!	!LO:TX:a:B:t=t	!	!LO:TX:a:B:t=t	!	!	!	!	!	!	!	!	!	!
8B\	.	.	8B\	.	8dd\J	.	8dd\J	.	.	.	.	.	.	.	.	.	.
8d\	.	.	8d\	.	(16ff#X\LL	.	(16ff#X\LL	.	.	.	.	.	.	.	.	4ff#X\	4aa\
.	.	.	.	.	16dd\)	.	16dd\)	.	.	.	.	.	.	.	.	.	.
8c\J	.	.	8c\J	.	(16aa\	.	(16aa\	.	.	.	.	.	.	.	.	.	.
.	.	.	.	.	16ff#\JJ)	.	16ff#\JJ)	.	.	.	.	.	.	.	.	.	.
8B\L	.	.	8B\L	.	16gg\LL	.	16gg\LL	.	.	.	.	.	.	.	.	4gg\	4bb\
.	.	.	.	.	16dd\J	.	16dd\J	.	.	.	.	.	.	.	.	.	.
!	!	!	!	!	!LO:TX:a:B:t=t	!	!LO:TX:a:B:t=t	!	!	!	!	!	!	!	!	!	!
8G\	.	.	8G\	.	8dd\J	.	8dd\J	.	.	.	.	.	.	.	.	.	.
8F#X\	.	.	8F#X\	.	16ccc\LL	.	16ccc\LL	.	.	.	.	.	.	.	.	4aa\	4ccc\
.	.	.	.	.	16dd\J	.	16dd\J	.	.	.	.	.	.	.	.	.	.
!	!	!	!	!	!LO:TX:a:B:t=t	!	!LO:TX:a:B:t=t	!	!	!	!	!	!	!	!	!	!
8D\J	.	.	8D\J	.	8dd\J	.	8dd\J	.	.	.	.	.	.	.	.	.	.
!LO:LB:g=original	!	!	!LO:LB:g=original	!	!	!	!	!	!	!	!	!LO:LB:g=original	!	!	!	!	!
=9	=9	=9	=9	=9	=9	=9	=9	=9	=9	=9	=9	=9	=9	=9	=9	=9	=9
8G\L	.	.	8G\L	.	16bb\LL	.	16bb\LL	1ryy	1ryy	1ryy	1ryy	1r	.	2dd\	2dd\_	4gg\	4bb\
.	.	.	.	.	16dd\J	.	16dd\J	.	.	.	.	.	.	.	.	.	.
!	!	!	!	!	!LO:TX:a:B:t=t	!	!LO:TX:a:B:t=t	!	!	!	!	!	!	!	!	!	!
8B\	.	.	8B\	.	8dd\J	.	8dd\J	.	.	.	.	.	.	.	.	.	.
8d\	.	.	8d\	.	(16ff#X\LL	.	(16ff#X\LL	.	.	.	.	.	.	.	.	4ff#X\	4aa\
.	.	.	.	.	16dd\)	.	16dd\)	.	.	.	.	.	.	.	.	.	.
8c\J	.	.	8c\J	.	(16aa\	.	(16aa\	.	.	.	.	.	.	.	.	.	.
.	.	.	.	.	16ff#\JJ)	.	16ff#\JJ)	.	.	.	.	.	.	.	.	.	.
!	!	!	!	!	!LO:LB:g=original	!	!	!	!	!	!	!	!	!	!	!	!
!	!	!LO:DY:b:t=pia&colon;	!	!LO:DY:b:t=p&colon;	!LO:TX:t=P:problem:niejednoznaczny zapis łuku	!	!LO:LB:g=original	!	!	!	!	!	!	!	!	!	!
8B\L	.	p	8B\L	p	(16gg\LL	.	8gg\	.	.	.	.	.	.	8dd\	8dd\]	4gg\	4gg\
.	.	.	.	.	16dd\	.	.	.	.	.	.	.	.	.	.	.	.
8G\	.	.	8G\	.	16b\	.	4ddd\	.	.	.	.	.	.	8r	8r	.	.
.	.	.	.	.	16dd\JJ)	.	.	.	.	.	.	.	.	.	.	.	.
8G\	.	.	8G\	.	(16b\LL	.	.	.	.	.	.	.	.	4r	4r	4r	4r
.	.	.	.	.	16dd\)	.	.	.	.	.	.	.	.	.	.	.	.
8G\J	.	.	8G\J	.	(16gg\	.	(16bb\LL	.	.	.	.	.	.	.	.	.	.
.	.	.	.	.	16dd\JJ)	.	16gg\JJ)	.	.	.	.	.	.	.	.	.	.
=10	=10	=10	=10	=10	=10	=10	=10	=10	=10	=10	=10	=10	=10	=10	=10	=10	=10
!	!	!	!	!	!	!	!	!	!	!	!	!	!	!	!	!LO:TX:a:t=2.	!LO:TX:a:t=2
8G\L	.	.	8G\L	.	(16b\LL	.	(16gg\LL	1ryy	1ryy	1ryy	1ryy	1r	.	0r	0r	0r	0r
.	.	.	.	.	16dd\)	.	16ffn\	.	.	.	.	.	.	.	.	.	.
8G\	.	.	8G\	.	(16b\	.	16ee\	.	.	.	.	.	.	.	.	.	.
.	.	.	.	.	16dd\JJ)	.	16ff\JJ)	.	.	.	.	.	.	.	.	.	.
8G\	.	.	8G\	.	(16b\LL	.	[4ff\	.	.	.	.	.	.	.	.	.	.
.	.	.	.	.	16dd\)	.	.	.	.	.	.	.	.	.	.	.	.
8G\J	.	.	8G\J	.	(16b\	.	.	.	.	.	.	.	.	.	.	.	.
.	.	.	.	.	16dd\JJ)	.	.	.	.	.	.	.	.	.	.	.	.
!	!	!	!	!	!LO:TX:t=P:problem:niejednoznaczny zapis łuku	!	!	!	!	!	!	!	!	!	!	!	!
8G\L	.	.	8G\L	.	(16b\LL	.	8ff\L]	.	.	.	.	.	.	.	.	.	.
.	.	.	.	.	16dd\	.	.	.	.	.	.	.	.	.	.	.	.
8G\	.	.	8G\	.	16ee\	.	16gg\L	.	.	.	.	.	.	.	.	.	.
.	.	.	.	.	16ff\JJ)	.	16aa\JJ	.	.	.	.	.	.	.	.	.	.
!	!	!	!	!	!LO:TX:t=P:problem:niejednoznaczny zapis łuku	!	!	!	!	!	!	!	!	!	!	!	!
8G\	.	.	8G\	.	(16ee\LL	.	(16gg\LL	.	.	.	.	.	.	.	.	.	.
.	.	.	.	.	16dd\	.	16ff\	.	.	.	.	.	.	.	.	.	.
8G\J	.	.	8G\J	.	16cc\	.	16ee\	.	.	.	.	.	.	.	.	.	.
.	.	.	.	.	16b\JJ)	.	16dd#X\JJ)	.	.	.	.	.	.	.	.	.	.
=11	=11	=11	=11	=11	=11	=11	=11	=11	=11	=11	=11	=11	=11	=11	=11	=11	=11
!	!	!	!	!	!LO:TX:t=P:problem:mixed beam	!	!LO:SIC:s=8dd#	!	!	!	!	!	!	!	!	!	!
8G\L	.	.	8G\L	.	(16b\LL	.	8dd\L	1ryy	1ryy	1ryy	1ryy	1r	.	.	.	.	.
.	.	.	.	.	16cc\)	.	.	.	.	.	.	.	.	.	.	.	.
8G\	.	.	8G\	.	(16g/	.	8ee\J	.	.	.	.	.	.	.	.	.	.
.	.	.	.	.	16e/JJ)	.	.	.	.	.	.	.	.	.	.	.	.
8G\	.	.	8G\	.	(16c/LL	.	4ee\	.	.	.	.	.	.	.	.	.	.
.	.	.	.	.	16e/)	.	.	.	.	.	.	.	.	.	.	.	.
8G\J	.	.	8G\J	.	(16g/	.	.	.	.	.	.	.	.	.	.	.	.
.	.	.	.	.	16cc/JJ)	.	.	.	.	.	.	.	.	.	.	.	.
!	!	!	!	!	!LO:TX:a:B:t=t	!	!	!	!	!	!	!	!	!	!	!	!
8G\L	.	.	8G\L	.	2f/	.	(16ee\LL	.	.	.	.	.	.	.	.	.	.
.	.	.	.	.	.	.	16ddn\	.	.	.	.	.	.	.	.	.	.
8G\	.	.	8G\	.	.	.	16ee\	.	.	.	.	.	.	.	.	.	.
.	.	.	.	.	.	.	16ff\JJ)	.	.	.	.	.	.	.	.	.	.
8G\	.	.	8G\	.	.	.	(16ee\LL	.	.	.	.	.	.	.	.	.	.
.	.	.	.	.	.	.	16dd\	.	.	.	.	.	.	.	.	.	.
8G\J	.	.	8G\J	.	.	.	16cc\	.	.	.	.	.	.	.	.	.	.
.	.	.	.	.	.	.	16b\JJ)	.	.	.	.	.	.	.	.	.	.
!LO:LB:g=original	!	!	!	!	!	!	!	!	!	!	!	!	!	!	!	!	!
=12	=12	=12	=12	=12	=12	=12	=12	=12	=12	=12	=12	=12	=12	=12	=12	=12	=12
8c\L	.	.	8c\L	.	16e/LL	.	16cc/LL	1ryy	1ryy	1ryy	1ryy	1r	.	2g/	2gg\	4cc\	4ee\
.	.	.	.	.	16g/J	.	16g/J	.	.	.	.	.	.	.	.	.	.
!	!	!	!	!	!LO:TX:a:B:t=t	!	!LO:TX:a:B:t=t	!	!	!	!	!	!	!	!	!	!
16.E\L	.	.	16.E\L	.	8g/J	.	8g/J	.	.	.	.	.	.	.	.	.	.
32C\JJk	.	.	32C\JJk	.	.	.	.	.	.	.	.	.	.	.	.	.	.
!	!	!	!	!	!LO:TX:t=P:problem:mixed beam	!	!LO:TX:t=P:problem:mixed beam	!	!	!	!	!	!	!	!	!	!
8BB/L	.	.	8BB/L	.	16ff\LL	.	16ff\LL	.	.	.	.	.	.	.	.	4dd\	4ff\
.	.	.	.	.	16g/J	.	16g/J	.	.	.	.	.	.	.	.	.	.
!	!	!	!	!	!LO:TX:a:B:t=t	!	!LO:TX:a:B:t=t	!	!	!	!	!	!	!	!	!	!
8GG/J	.	.	8GG/J	.	8g/J	.	8g/J	.	.	.	.	.	.	.	.	.	.
!	!	!	!	!	!LO:LB:g=original	!	!LO:LB:g=original	!	!	!	!	!	!	!	!	!	!
!	!	!	!	!	!LO:TX:t=P:problem:mixed beam	!	!LO:TX:t=P:problem:mixed beam	!	!	!	!	!	!	!	!	!	!LO:LB:g=original
8C\L	.	.	8C\L	.	16ee\LL	.	16ee\LL	.	.	.	.	.	.	2g/	2gg\	4cc\	4ee\
.	.	.	.	.	16g/J	.	16g/J	.	.	.	.	.	.	.	.	.	.
!	!	!	!	!	!LO:TX:a:B:t=t	!	!LO:TX:a:B:t=t	!	!	!	!	!	!	!	!	!	!
8E\	.	.	8E\	.	8g/J	.	8g/J	.	.	.	.	.	.	.	.	.	.
8G\	.	.	8G\	.	(16b/LL	.	(16b/LL	.	.	.	.	.	.	.	.	4b\	4dd\
.	.	.	.	.	16g/)	.	16g/)	.	.	.	.	.	.	.	.	.	.
8F\J	.	.	8F\J	.	(16dd/	.	(16dd/	.	.	.	.	.	.	.	.	.	.
.	.	.	.	.	16b/JJ)	.	16b/JJ)	.	.	.	.	.	.	.	.	.	.
!	!	!	!LO:LB:g=original	!	!	!	!	!	!	!	!	!	!	!LO:LB:g=original	!	!LO:LB:g=original	!
=13	=13	=13	=13	=13	=13	=13	=13	=13	=13	=13	=13	=13	=13	=13	=13	=13	=13
!	!	!	!LO:TX:t=P:problem:mixed beam	!	!	!	!	!	!	!	!	!	!	!	!	!	!
8E\L	.	.	8E\L	.	16cc/LL	.	16cc/LL	1ryy	1ryy	1ryy	1ryy	1r	.	1g	1gg	4cc\	4ee\
.	.	.	.	.	16g/J	.	16g/J	.	.	.	.	.	.	.	.	.	.
!	!	!	!	!	!LO:TX:a:B:t=t	!	!LO:TX:a:B:t=t	!	!	!	!	!	!	!	!	!	!
8C\	.	.	8C/	.	8g/J	.	8g/J	.	.	.	.	.	.	.	.	.	.
!	!	!	!	!	!LO:TX:t=P:problem:mixed beam	!	!LO:TX:t=P:problem:mixed beam	!	!	!	!	!	!	!	!	!	!
8BB\	.	.	8BB/	.	16ff\LL	.	16ff\LL	.	.	.	.	.	.	.	.	4dd\	4ff\
.	.	.	.	.	16g/J	.	16g/J	.	.	.	.	.	.	.	.	.	.
!	!	!	!	!	!LO:TX:a:B:t=t	!	!LO:TX:a:B:t=t	!	!	!	!	!	!	!	!	!	!
8GG\J	.	.	8GG/J	.	8g/J	.	8g/J	.	.	.	.	.	.	.	.	.	.
!	!	!	!	!	!LO:TX:t=P:problem:mixed beam	!	!LO:TX:t=P:problem:mixed beam	!	!	!	!	!	!	!	!	!	!
8C\L	.	.	8C\L	.	16ee\LL	.	16ee\LL	.	.	.	.	.	.	.	.	4cc\	4ee\
.	.	.	.	.	16g/J	.	16g/J	.	.	.	.	.	.	.	.	.	.
!	!	!	!	!	!LO:TX:a:B:t=t	!	!LO:TX:a:B:t=t	!	!	!	!	!	!	!	!	!	!
8E\	.	.	8E\	.	8g/J	.	8g/J	.	.	.	.	.	.	.	.	.	.
8G\	.	.	8G\	.	(16b/LL	.	(16b/LL	.	.	.	.	.	.	.	.	4b\	4dd\
.	.	.	.	.	16g/)	.	16g/)	.	.	.	.	.	.	.	.	.	.
8F\J	.	.	8F\J	.	(16dd/	.	(16dd/	.	.	.	.	.	.	.	.	.	.
.	.	.	.	.	16b/JJ)	.	16b/JJ)	.	.	.	.	.	.	.	.	.	.
!	!	!	!	!	!	!	!	!	!	!	!	!	!	!	!LO:LB:g=original	!	!
=14	=14	=14	=14	=14	=14	=14	=14	=14	=14	=14	=14	=14	=14	=14	=14	=14	=14
8E\L	.	.	8E\L	.	16cc\KL	.	16cc\KL	1ryy	1ryy	1ryy	1ryy	2r	.	4g/	4gg\	4cc\	4cc\
.	.	.	.	.	8ccc\	.	8ccc\	.	.	.	.	.	.	.	.	.	.
8C\J	.	.	8C\J	.	.	.	.	.	.	.	.	.	.	.	.	.	.
.	.	.	.	.	16ccc\Jk	.	16ccc\Jk	.	.	.	.	.	.	.	.	.	.
16r	.	.	16r	.	16ccc\LL	.	16ccc\LL	.	.	.	.	.	.	4r	4r	16r	16r
!LO:TX:t=P:problem:niejednoznaczny zapis łuku	!	!	!LO:TX:t=P:problem:niejednoznaczny zapis łuku	!	!LO:TX:t=P:problem:niejednoznaczny zapis łuku	!	!LO:TX:t=P:problem:niejednoznaczny zapis łuku	!	!	!	!	!	!	!	!	!LO:TX:t=P:problem:niejednoznaczny zapis łuku	!
(32c\LLL	.	.	(32c\LLL	.	(32cc\L	.	(32cc\L	.	.	.	.	.	.	.	.	(32cc\LLL	32cc\LLL
32d\J)	.	.	32d\J	.	32dd\J	.	32dd\J	.	.	.	.	.	.	.	.	32dd\J	32dd\J
16e\	.	.	16e\)	.	16ee\)	.	16ee\)	.	.	.	.	.	.	.	.	16ee\)	16ee\
16c\JJ	.	.	16c\JJ	.	16cc\JJ	.	16cc\JJ	.	.	.	.	.	.	.	.	16cc\JJ	16cc\JJ
!LO:TX:t=P:problem:mixed beam	!	!	!LO:TX:t=P:problem:mixed beam	!	!	!	!	!	!	!	!	!LO:LB:g=original	!	!	!	!	!
8A\L	.	.	8A\L	.	16a\KL	.	16a\KL	.	.	.	.	2r	.	2r	2r	4a/	4a/
.	.	.	.	.	8ccc\	.	8ccc\	.	.	.	.	.	.	.	.	.	.
8AA/J	.	.	8AA/J	.	.	.	.	.	.	.	.	.	.	.	.	.	.
.	.	.	.	.	16ccc\Jk	.	16ccc\Jk	.	.	.	.	.	.	.	.	.	.
!	!	!	!	!	!LO:TX:t=P:problem:mixed beam	!	!LO:TX:t=P:problem:mixed beam	!	!	!	!	!	!	!	!	!	!
16r	.	.	16r	.	16ccc\LL	.	16ccc\LL	.	.	.	.	.	.	.	.	16r	16r
!	!	!	!	!	!LO:TX:t=P:problem:niejednoznaczny zapis łuku	!	!LO:TX:t=P:problem:niejednoznaczny zapis łuku	!	!	!	!	!	!	!	!	!	!
(32A\LLL	.	.	(32A\LLL	.	(32a/L	.	(32a\L	.	.	.	.	.	.	.	.	32a/LLL	32a/LLL
32B\J)	.	.	32B\J)	.	32b/J	.	32b\J	.	.	.	.	.	.	.	.	32b/J	32b/J
16c\	.	.	16c\	.	16cc/)	.	16cc\)	.	.	.	.	.	.	.	.	16cc/	16cc/
16A\JJ	.	.	16A\JJ	.	16a/JJ	.	16a\JJ	.	.	.	.	.	.	.	.	16a/JJ	16a/JJ
!LO:LB:g=original	!	!	!LO:LB:g=original	!	!LO:LB:g=original	!	!LO:LB:g=original	!	!	!	!	!	!	!	!	!	!
=15	=15	=15	=15	=15	=15	=15	=15	=15	=15	=15	=15	=15	=15	=15	=15	=15	=15
!LO:TX:t=P:problem:powyżej partii Organo pięciolinia z pomocniczo zapisaną partią Soprano Solo	!	!	!LO:TX:t=P:problem:powyżej partii Violono pięciolinia z pomocniczo zapisaną partią Soprano Solo	!	!LO:TX:t=P:problem:powyżej partii Violino 2.do pięciolinia z pomocniczo zapisaną partią Soprano Solo	!LO:DY:b:t=p&colon;	!LO:TX:t=P:problem:powyżej partii Violino Primo pięciolinia z pomocniczo zapisaną partią Soprano Solo	!	!	!	!	!	!	!	!	!	!
.	.	.	.	.	(8qqf#X/	p	(8qqf#X/	.	.	.	.	.	.	.	.	.	.
!	!	!	!	!LO:DY:b	!	!	!	!	!	!	!	!	!	!	!	!	!
[<1F#X	.	.	[<1F#X	p	[1a)	.	[<1dd)	1ryy	1ryy	1ryy	1ryy	8r	.	0r	0r	4f#X/	4f#X/
.	.	.	.	.	.	.	.	.	.	.	.	8dd\	Quid	.	.	.	.
.	.	.	.	.	.	.	.	.	.	.	.	8dd\	ho-	.	.	4r	4r
.	.	.	.	.	.	.	.	.	.	.	.	8b\	-stem	.	.	.	.
!	!	!	!	!	!	!	!	!	!	!	!	!	!	!	!	!LO:TX:a:t=Recit.vo	!LO:TX:a:t=Recit.vo
.	.	.	.	.	.	.	.	.	.	.	.	8g\	ti-	.	.	2r	2r
.	.	.	.	.	.	.	.	.	.	.	.	8f#X/	-mes	.	.	.	.
.	.	.	.	.	.	.	.	.	.	.	.	8a\	et	.	.	.	.
.	.	.	.	.	.	.	.	.	.	.	.	8b\	ex-	.	.	.	.
=16	=16	=16	=16	=16	=16	=16	=16	=16	=16	=16	=16	=16	=16	=16	=16	=16	=16
!	!	!	!	!	!	!	!	!	!	!	!	!	!	!	!	!LO:TX:a:t=i	!LO:TX:a:t=i
2F#\]	.	.	2F#\]	.	2a/]	.	2dd\_<	1ryy	1ryy	1ryy	1ryy	16dd\	-ci-	.	.	1r	1r
.	.	.	.	.	.	.	.	.	.	.	.	16cc\	-di-	.	.	.	.
.	.	.	.	.	.	.	.	.	.	.	.	8cc\	-um	.	.	.	.
.	.	.	.	.	.	.	.	.	.	.	.	8r	.	.	.	.	.
.	.	.	.	.	.	.	.	.	.	.	.	8cc\	res	.	.	.	.
!LO:LB:g=original	!	!	!LO:LB:g=original	!	!LO:LB:g=original	!	!LO:LB:g=original	!	!	!	!	!LO:LB:g=original	!	!	!	!	!
[<2F#X\	.	.	2F#X\	.	[2a/	.	2dd\_<	.	.	.	.	8cc\	tu-	.	.	.	.
.	.	.	.	.	.	.	.	.	.	.	.	8cc\	-ta	.	.	.	.
.	.	.	.	.	.	.	.	.	.	.	.	8b\	nil	.	.	.	.
.	.	.	.	.	.	.	.	.	.	.	.	8a\	ti-	.	.	.	.
=17	=17	=17	=17	=17	=17	=17	=17	=17	=17	=17	=17	=17	=17	=17	=17	=17	=17
2F#\]	.	.	2F#X\	.	2a/]	.	2dd\]	1ryy	1ryy	1ryy	1ryy	8dd\	-me-	2r	2r	2r	2r
.	.	.	.	.	.	.	.	.	.	.	.	8dd\	-re	.	.	.	.
.	.	.	.	.	.	.	.	.	.	.	.	8cc\	prae-	.	.	.	.
.	.	.	.	.	.	.	.	.	.	.	.	8dd\	-ter	.	.	.	.
4G\	.	.	4G\	.	4g/	.	4dd\	.	.	.	.	8cc\	de-	4r	4r	4r	4r
.	.	.	.	.	.	.	.	.	.	.	.	8b\	-um	.	.	.	.
4G\	.	.	4G\	.	(16bb\LL	.	16bb\LL	.	.	.	.	4r	.	8.g/L	8.dd\L	[4b/	[4dd\
!	!	!	!	!	!	!LO:DY:b	!	!	!	!	!	!	!	!	!	!	!
.	.	.	.	.	16gg\)	f	16gg\	.	.	.	.	.	.	.	.	.	.
.	.	.	.	.	(16dd\	.	16dd\	.	.	.	.	.	.	.	.	.	.
.	.	.	.	.	16b\JJ)	.	16b\JJ	.	.	.	.	.	.	16g/Jk	16dd\Jk	.	.
!LO:PB:g=original	!	!	!LO:PB:g=original	!	!LO:PB:g=original	!	!LO:PB:g=original	!	!	!	!	!	!	!	!	!LO:LB:g=original	!LO:LB:g=original
=18	=18	=18	=18	=18	=18	=18	=18	=18	=18	=18	=18	=18	=18	=18	=18	=18	=18
!	!	!	!	!	!	!	!	!	!	!	!	!LO:TX:b:t=V&colon;S&colon;	!	!	!	!	!
4G\	.	.	4G\	.	(16gg\LL	.	(16gg\LL	1ryy	1ryy	1ryy	1ryy	1r	.	4g/	4dd\	4b/]	4dd\]
.	.	.	.	.	16dd\)	.	16dd\)	.	.	.	.	.	.	.	.	.	.
.	.	.	.	.	(16b\	.	(16b\	.	.	.	.	.	.	.	.	.	.
.	.	.	.	.	16g\JJ)	.	16g\JJ)	.	.	.	.	.	.	.	.	.	.
4G\	.	.	4G\	.	(16dd/LL	.	(16dd/LL	.	.	.	.	.	.	8.g/L	8.dd\L	2b/	2dd\
.	.	.	.	.	16b/)	.	16b/)	.	.	.	.	.	.	.	.	.	.
.	.	.	.	.	(16g/	.	(16g/	.	.	.	.	.	.	.	.	.	.
.	.	.	.	.	16d/JJ)	.	16d/JJ)	.	.	.	.	.	.	16g/Jk	16dd\Jk	.	.
4G\	.	.	4G\	.	(16b/LL	.	(16b/LL	.	.	.	.	.	.	4g/	4dd\	.	.
.	.	.	.	.	16g/)	.	16g/)	.	.	.	.	.	.	.	.	.	.
.	.	.	.	.	(16d/	.	(16d/	.	.	.	.	.	.	.	.	.	.
.	.	.	.	.	16B/JJ)	.	16B/JJ)	.	.	.	.	.	.	.	.	.	.
8F#X\L	.	.	8F#X\L	.	16A/KL	.	16A/KL	.	.	.	.	.	.	4r	4r	4a/	8dd\L
.	.	.	.	.	8c/	.	8c/	.	.	.	.	.	.	.	.	.	.
8Fn\J	.	.	8Fn\J	.	.	.	.	.	.	.	.	.	.	.	.	.	8dd#X\J
.	.	.	.	.	32B/LL	.	32B/LL	.	.	.	.	.	.	.	.	.	.
.	.	.	.	.	32A/JJJ	.	32A/JJJ	.	.	.	.	.	.	.	.	.	.
!	!	!	!	!	!	!	!	!	!	!	!	!LO:LB:g=original	!	!	!	!	!
=19	=19	=19	=19	=19	=19	=19	=19	=19	=19	=19	=19	=19	=19	=19	=19	=19	=19
1E	.	.	1E	.	4G#X/	.	4G#X/	1ryy	1ryy	1ryy	1ryy	4r	.	4e/	4ee\	4g#X/	4ee\
.	.	.	.	.	4r	.	4r	.	.	.	.	8b\	ti-	4r	4r	4r	4r
.	.	.	.	.	.	.	.	.	.	.	.	8b\	-mor	.	.	.	.
.	.	.	.	.	2r	.	2r	.	.	.	.	16a\	Do-	2r	2r	2r	2r
.	.	.	.	.	.	.	.	.	.	.	.	16g#X/	-mi-	.	.	.	.
.	.	.	.	.	.	.	.	.	.	.	.	16g#/	-ni	.	.	.	.
.	.	.	.	.	.	.	.	.	.	.	.	16g#/	est	.	.	.	.
.	.	.	.	.	.	.	.	.	.	.	.	8g#/	men-	.	.	.	.
.	.	.	.	.	.	.	.	.	.	.	.	8a\	-tis	.	.	.	.
!LO:LB:g=original	!	!	!LO:LB:g=original	!	!LO:LB:g=original	!	!LO:LB:g=original	!	!	!	!	!	!	!	!	!	!
=20	=20	=20	=20	=20	=20	=20	=20	=20	=20	=20	=20	=20	=20	=20	=20	=20	=20
!	!	!	!	!	!	!	!	!	!	!	!	!	!	!	!	!LO:TX:a:t=2	!LO:TX:a:t=2
[<1E	.	.	[<1E	.	1r	.	1r	1ryy	1ryy	1ryy	1ryy	8cc\	mu-	0r	0r	0r	0r
.	.	.	.	.	.	.	.	.	.	.	.	8b\	-rus	.	.	.	.
.	.	.	.	.	.	.	.	.	.	.	.	8b\	et	.	.	.	.
.	.	.	.	.	.	.	.	.	.	.	.	8cc\	prae-	.	.	.	.
!	!	!	!	!	!	!	!	!	!	!	!	!LO:LB:g=original	!	!	!	!	!
.	.	.	.	.	.	.	.	.	.	.	.	16ee\	-si-	.	.	.	.
.	.	.	.	.	.	.	.	.	.	.	.	16dd\	-di-	.	.	.	.
.	.	.	.	.	.	.	.	.	.	.	.	8dd\	-um	.	.	.	.
.	.	.	.	.	.	.	.	.	.	.	.	8dd\	tur-	.	.	.	.
.	.	.	.	.	.	.	.	.	.	.	.	16cc\	-ris	.	.	.	.
.	.	.	.	.	.	.	.	.	.	.	.	16b\	et	.	.	.	.
=21	=21	=21	=21	=21	=21	=21	=21	=21	=21	=21	=21	=21	=21	=21	=21	=21	=21
2E\]	.	.	2E\]	.	2r	.	2r	1ryy	1ryy	1ryy	1ryy	8ee\	scu-	.	.	.	.
.	.	.	.	.	.	.	.	.	.	.	.	8b\	-tum	.	.	.	.
.	.	.	.	.	.	.	.	.	.	.	.	8dd\	in	.	.	.	.
.	.	.	.	.	.	.	.	.	.	.	.	16ee\	ex	.	.	.	.
.	.	.	.	.	.	.	.	.	.	.	.	16b\	pug-	.	.	.	.
!LO:LB:g=original	!	!	!LO:LB:g=original	!	!LO:LB:g=original	!	!LO:LB:g=original	!	!	!	!	!	!	!	!	!	!
2AA/	.	.	2AA/	.	2r	.	2r	.	.	.	.	8.dd\	-na-	.	.	.	.
.	.	.	.	.	.	.	.	.	.	.	.	16cc\	-bi-	.	.	.	.
.	.	.	.	.	.	.	.	.	.	.	.	4cc\	-le	.	.	.	.
!	!	!	!	!	!	!	!	!	!	!	!	!LO:LB:g=original	!	!	!	!	!
=22	=22	=22	=22	=22	=22	=22	=22	=22	=22	=22	=22	=22	=22	=22	=22	=22	=22
!	!	!	!	!	!LO:TX:t=P:problem:sekstola oznaczona liczbą i łukiem:global	!LO:DY:b:t=for	!	!	!	!	!	!	!	!	!	!	!
4A\	.	.	4A\	.	24aa\LL	f	24aa\LL	1ryy	1ryy	1ryy	1ryy	1r	.	4e/	4ee\	2.e/	4cc\
.	.	.	.	.	24ee\	.	24ee\	.	.	.	.	.	.	.	.	.	.
.	.	.	.	.	24dd\	.	24dd\	.	.	.	.	.	.	.	.	.	.
.	.	.	.	.	24cc\	.	24cc\	.	.	.	.	.	.	.	.	.	.
.	.	.	.	.	24b\	.	24b\	.	.	.	.	.	.	.	.	.	.
.	.	.	.	.	24a\JJ	.	24a\JJ	.	.	.	.	.	.	.	.	.	.
!	!	!	!	!	!LO:TUP:b	!	!LO:TUP:b	!	!	!	!	!	!	!	!	!	!
4E\	.	.	4E\	.	24g#X/LL	.	24g#X/LL	.	.	.	.	.	.	8.e/L	8ee\L	.	4b\
.	.	.	.	.	24f/	.	24f/	.	.	.	.	.	.	.	.	.	.
.	.	.	.	.	24e/	.	24e/	.	.	.	.	.	.	.	.	.	.
.	.	.	.	.	24d/	.	24d/	.	.	.	.	.	.	.	8ee\J	.	.
.	.	.	.	.	24c/	.	24c/	.	.	.	.	.	.	.	.	.	.
.	.	.	.	.	.	.	.	.	.	.	.	.	.	16e/Jk	.	.	.
.	.	.	.	.	24B/JJ	.	24B/JJ	.	.	.	.	.	.	.	.	.	.
*	*	*	*	*	*	*	*Xtuplet	*	*	*	*	*	*	*	*	*	*
!	!	!	!	!	!LO:TUP:b	!	!LO:TX:t=P:problem:sekstola bez liczby i łuku	!	!	!	!	!	!	!	!	!	!
4AA/	.	.	4AA/	.	24A/LL	.	24A/LL	.	.	.	.	.	.	4e/	4ee\	.	2cc\
.	.	.	.	.	24B/	.	24B/	.	.	.	.	.	.	.	.	.	.
.	.	.	.	.	24c/	.	24c/	.	.	.	.	.	.	.	.	.	.
.	.	.	.	.	24c/	.	24c/	.	.	.	.	.	.	.	.	.	.
.	.	.	.	.	24d/	.	24d/	.	.	.	.	.	.	.	.	.	.
.	.	.	.	.	24e/JJ	.	24e/JJ	.	.	.	.	.	.	.	.	.	.
!	!	!	!	!	!LO:SIC:s=8qgn:v	!	!LO:SIC:s=8qgn:v	!	!	!	!	!	!	!	!	!	!
.	.	.	.	.	8qg#/	.	8qg#/	.	.	.	.	.	.	.	.	.	.
!	!	!	!	!	!	!	!	!	!	!	!	!	!	!LO:LB:g=original	!	!	!
8AA/L	.	.	8AA/L	.	(16f/LL	.	(16f/LL	.	.	.	.	.	.	4r	4r	[4fn/	.
.	.	.	.	.	32e/L	.	32e/L	.	.	.	.	.	.	.	.	.	.
.	.	.	.	.	32f/JJJ)	.	32f/JJJ)	.	.	.	.	.	.	.	.	.	.
!	!	!	!	!	!LO:SIC:s=8qgn:v	!	!LO:SIC:s=8qgn:v	!	!	!	!	!	!	!	!	!	!
.	.	.	.	.	8qg#/	.	8qg#/	.	.	.	.	.	.	.	.	.	.
8AA/J	.	.	8AA/J	.	(16f/LL	.	(16f/LL	.	.	.	.	.	.	.	.	.	.
.	.	.	.	.	32e/L	.	32e/L	.	.	.	.	.	.	.	.	.	.
.	.	.	.	.	32f/JJJ)	.	32f/JJJ)	.	.	.	.	.	.	.	.	.	.
!	!	!	!	!	!LO:LB:g=original	!	!LO:LB:g=original	!	!	!	!	!	!	!	!	!	!
=23	=23	=23	=23	=23	=23	=23	=23	=23	=23	=23	=23	=23	=23	=23	=23	=23	=23
2BB/	.	.	2BB/	.	4G/ 4f	.	4G/ 4f	1ryy	1ryy	1ryy	1ryy	8r	.	4g/	4dd\	4f/]	4dd\
.	.	.	.	.	.	.	.	.	.	.	.	8dd\	in	.	.	.	.
.	.	.	.	.	4r	.	4r	.	.	.	.	8ee\	om-	4r	4r	4r	4r
.	.	.	.	.	.	.	.	.	.	.	.	8ff\	-ni	.	.	.	.
2C/	.	.	2C/	.	2r	.	2r	.	.	.	.	4ff\	Eu-	2r	2r	2r	2r
.	.	.	.	.	.	.	.	.	.	.	.	4ee\	-ctu	.	.	.	.
!LO:LB:g=original	!	!	!LO:LB:g=original	!	!	!	!	!	!	!	!	!	!	!	!LO:LB:g=original	!	!
=24	=24	=24	=24	=24	=24	=24	=24	=24	=24	=24	=24	=24	=24	=24	=24	=24	=24
!	!	!	!	!	!	!	!	!	!	!	!	!	!	!	!LO:TX:a:t=2	!LO:TX:a:t=2.	!LO:TX:a:t=2
2E\	.	.	2E\	.	2r	.	2r	1ryy	1ryy	1ryy	1ryy	4r	.	0r	0r	0r	0r
.	.	.	.	.	.	.	.	.	.	.	.	8ee\	o,	.	.	.	.
.	.	.	.	.	.	.	.	.	.	.	.	8cc\	Cor	.	.	.	.
2F\	.	.	2F\	.	4r	.	4r	.	.	.	.	4b\	me-	.	.	.	.
.	.	.	.	.	8.r	.	8.r	.	.	.	.	4a\	-um	.	.	.	.
.	.	.	.	.	16aa\	.	16aa\	.	.	.	.	.	.	.	.	.	.
!	!	!	!	!	!	!	!	!	!	!	!	!LO:LB:g=original	!	!	!	!	!
=25	=25	=25	=25	=25	=25	=25	=25	=25	=25	=25	=25	=25	=25	=25	=25	=25	=25
!	!	!	!	!	!	!LO:DY:b:t=f&colon;	!	!	!	!	!	!	!	!	!	!	!
2F\	.	.	2F\	.	(16ee\LL	f	(16ee\LL	1ryy	1ryy	1ryy	1ryy	4r	.	.	.	.	.
.	.	.	.	.	16ff\)	.	16ff\)	.	.	.	.	.	.	.	.	.	.
.	.	.	.	.	(16cc#X\	.	(16cc#X\	.	.	.	.	.	.	.	.	.	.
.	.	.	.	.	16dd\JJ)	.	16dd\JJ)	.	.	.	.	.	.	.	.	.	.
.	.	.	.	.	4d/	.	4d/	.	.	.	.	4ff\	huic	.	.	.	.
!	!	!	!	!	!LO:LB:g=original	!	!LO:LB:g=original	!	!	!	!	!	!	!	!	!	!
2r	.	.	2r	.	2r	.	2r	.	.	.	.	8ff\	ad	.	.	.	.
.	.	.	.	.	.	.	.	.	.	.	.	8dd\	hae-	.	.	.	.
.	.	.	.	.	.	.	.	.	.	.	.	8b\	-re	.	.	.	.
.	.	.	.	.	.	.	.	.	.	.	.	8cc\	to	.	.	.	.
!LO:LB:g=original	!	!	!LO:LB:g=original	!	!	!	!	!	!	!	!	!	!	!	!	!	!
=26	=26	=26	=26	=26	=26	=26	=26	=26	=26	=26	=26	=26	=26	=26	=26	=26	=26
4r	.	.	4r	.	4r	.	4r	1ryy	1ryy	1ryy	1ryy	16cc\	Sta-	4r	4r	4r	4r
.	.	.	.	.	.	.	.	.	.	.	.	16g/	-bi-	.	.	.	.
.	.	.	.	.	.	.	.	.	.	.	.	8g/	-le	.	.	.	.
4G\	.	.	4G\	.	4g/ 4dd 4bb	.	4g/ 4dd 4bb	.	.	.	.	4r	.	4g/	4dd\	4dd\	4bb\
4C/	.	.	4C/	.	4g/ 4ee 4ccc	.	4g/ 4ee 4ccc	.	.	.	.	2r	.	4e/	4cc\	4ee\	4ccc\
!LO:TX:a:t=V&colon; S&colon;\nL Aria	!	!	!LO:TX:a:t=V S\nL Aria	!	!LO:TX:a:t=V&colon; Sub&colon;	!	!LO:TX:a:t=VS&colon;	!	!	!	!	!	!	!	!	!	!
4r	.	.	4r	.	4r	.	4r	.	.	.	.	.	.	4r	4r	4r	4r
==	==	==	==	==	==	==	==	==	==	==	==	==	==	==	==	==	==
*-	*-	*-	*-	*-	*-	*-	*-	*-	*-	*-	*-	*-	*-	*-	*-	*-	*-
!!!system-decoration: [(g1)][(g2)][(g3)][(g4)][(g5)]
!!!RDF**kern: >= above
!!!RDF**kern: <= below
!!!ENC: Andrzej Kubiczek
!!!END: 2021-01-03
!!!ENC:Anna Matuszewska
!!!END:2021-01-05
